X: 4215
T: JIG in G.
R: Jig
%R: jig
B: James Kerr "Merry Melodies" v.4 p.24 #215
Z: 2016 John Chambers <jc:trillian.mit.edu>
M: 6/8
L: 1/8
K: G
D |\
BBB B2D | BBB B2d | gfe dcB | d2c A2B |\
ccc c2D | ccc c2e | edB dcA | GBd g2 :|
|: f |\
gfg agf | bag agf | gfg bag | fdd def |\
gfg agf | gab bag | gab agf | g3- g2 :|

%%sep 1 1 500
%%sep 1 1 500

